X:76
T:Miss Ottoes Reel
M:6/8
L:1/8
B:Thompson's Compleat Collection of 200 Favourite Country Dances, vol. 3 (London, 1773)
Z:Transcribed and edited by Flynn Titford-Mock, 2007
Z:abc's:AK/Fiddler's Companion
K:A
A3 cec | A3 cec | d2f ecA | BGE EF=G | FEF DFD | E3 d3 | cec dcB | A3 A,3 :|
|: a3 g2a | bge ege | f3 fga | ecA ABc | d3 fdB | c3 ecA |
B3 Bcd | BGE EF=G | FEF DFD | E3 d3 | cec dcB | A3 A,3 :|

